!!!OTL: 500. Vor der Abfahrt mit dem Schiffe. / [Auswandrerlied.]
!!!ARE: Europa, Mitteleuropa, Deutschland, Wetzlar; Dillkreis
!!!SCT: B0500
!!!TXL: @@DE
!!!YEM: Copyright 1995, estate of Helmut Schaffrath.
**kern	**text
*ICvox	*
*Ivox	*
*clefG2	*
*M6/8	*
*k[f#c#]	*
*D:	*
!LO:TX:a:t=Nicht ʒu ſchnell.	!
{8a	Wie
=1	=1
8.a	wird
16a	mir
8a	ſo
8a	bang,
8a	daß
8a	ich
=2	=2
8a/L	ſchei-
8ddJ	.
8a	-den
4a}	muß,
{8a	wie
=3	=3
8.g	wird
16g	mir's
8g	im
8b	Her-
8a	-ʒen
8g	ſo
=4	=4
[4.f#	weh!
8f#]	.
8r}	-
{8f#	Feinslieb-
=5	=5
8.e	.
16e	-chen,
8e	die
8e	Au-
8g#	-gen
8b/	von
=6	=6
4dd	Thränen
8cc#	.
4a}	voll,
{8cc#	ſeh'
=7	=7
8b	ich
8b	an
8e	den
8cc#	Fen-
8cc#	-ſter
8b	dort
=8	=8
[4.a	ſtehn.
8a]	.
8r}	.
{8a	Sie
=9	=9
4b	winkt
8a	mit_dem
8g	Tüchlein,
8f#	.
8g	ſie
=10	=10
4a	blickt
8g	und
4f#}	blickt,
{8a	hat
=11	=11
4b	tau-
8a	-ſend
8g	Grü-
8f#	-ße
8g	mir
=12	=12
4a	nach-
8g	-ge-
4f#}	-ſchickt,
{8a	und
=13	=13
8dd	flü-
8dd	-ſtert
8a	ein
8dd	ſtil-
8dd	-les
8a	A-
=14	=14
[4.ff#	-de!
4ff#]}	.
{8a	A-
=15	=15
[4.dd	-de!
4dd]	.
8cc	A-
=16	=16
[4.b	-de!
8b]	.
8r}	.
{8g	und
=17	=17
8g	flü-
8g	-ſtert
8e	ein
8cc#	ſtil-
8b	-les
8cc#	A-
=18	=18
[4.dd	-de!
8dd]	.
8r}	.
==	==
!!!AGN: Abschieds - Lied
!!!GTL: Abschiedslieder
!!!ONB: ESAC (Essen Associative Code) Database: BOEHME
!!!AMT: compound duple
!!!AIN: vox
!!!EED: Helmut Schaffrath
!!!EEV: 1.0
!!Aus dem Kreis Wetzlar und dem Dillkreis und Hunsrֳ¼ck (1890-92).
!!@@COMMENT:"Vielgesungenes Lied, durch Herrn Wolfram in Dillenburg und K. Becker in Neuwied erhalten.
!!* Var. am Rhein: "der Garonne Strand"."
!!@@END:
!!!URL-scan: https://archive.org/details/BoehmeVtLieder1895/page/n399/mode/2up
!!!ENC: Anna Maria Matuszewska
!!!EEV: 2024/10/07
*-	*-
